src/pos-icons/post-outline.svg

<svg height="24" viewBox="0 0 24 24" width="24" xmlns="http://www.w3.org/2000/svg"><path d="m19 5v14h-14v-14zm2-2h-18v18h18zm-4 14h-10v-1h10zm0-2h-10v-1h10zm0-3h-10v-5h10z"/></svg>

<?xml version="1.0" encoding="UTF-8"?><!DOCTYPE svg PUBLIC "-//W3C//DTD SVG 1.1//EN" "http://www.w3.org/Graphics/SVG/1.1/DTD/svg11.dtd"><svg xmlns="http://www.w3.org/2000/svg" xmlns:xlink="http://www.w3.org/1999/xlink" version="1.1" id="mdi-post-outline" width="24" height="24" viewBox="0 0 24 24"><path d="M19 5V19H5V5H19M21 3H3V21H21V3M17 17H7V16H17V17M17 15H7V14H17V15M17 12H7V7H17V12Z" /></svg>
